T: McKechnies Farewell
M: 4/4
L: 1/8
K: Dmaj
K:D
DE| F2 FA E2 DE|FEFA E2 DE|F2 FA dcBA|B2 BA B2 c2|
dcBA BAFE|FEFA E2 DE|FEFA EDB,A,|1B,DDE D2 DE:|2 B,DDE D2 FA|:
B2 BA  (3B2d2c2|A2 AF AB  (3FED|E2 ED EFDE|FAAF ABFA|
B2 BA  (3B2d2c2|A2 AF AB  (3FED|E2 ED EFDB,|1A,DDE D2 FA:|2A,DDE D4|
